assets/img/braze_icons/log-in-01-alt.svg

<svg fill="none" height="24" viewBox="0 0 24 24" width="24" xmlns="http://www.w3.org/2000/svg"><g fill="#801ed7"><path d="m16.5307 2.03693c.2356-.03732.4977-.03716.8022-.03696l.1496.00001c.477-.00016.8305-.00027 1.1432.04926 1.7116.27109 3.054 1.61345 3.325 3.32502.0496.31275.0495.66624.0493 1.14322v10.96502c.0002.477.0003.8305-.0493 1.1432-.271 1.7116-1.6134 3.054-3.325 3.325-.3127.0496-.6663.0495-1.1432.0493h-.1496c-.3045.0002-.5666.0004-.8022-.0369-1.2837-.2034-2.2905-1.2101-2.4938-2.4938-.0373-.2357-.0371-.4977-.0369-.8022v-.7617c0-.2446 0-.3669.0276-.482.0245-.102.0649-.1995.1197-.289.0619-.1009.1483-.1874.3213-.3604l2.6527-2.6527c1.1716-1.1716 1.1716-3.071 0-4.24262l-2.6527-2.65272c-.173-.17296-.2594-.25943-.3213-.36035-.0548-.08947-.0952-.18702-.1197-.28905-.0276-.11509-.0276-.23738-.0276-.48198v-.76169c-.0002-.30453-.0004-.56654.0369-.8022.2033-1.28368 1.2101-2.29045 2.4938-2.49376z"/><path d="m9.29289 6.29289c.39053-.39052 1.02371-.39052 1.41421 0l5 5.00001c.3905.3905.3905 1.0237 0 1.4142l-5 5c-.3905.3905-1.02368.3905-1.41421 0-.39052-.3905-.39052-1.0237 0-1.4142l3.29291-3.2929h-9.5858c-.55228 0-1-.4477-1-1s.44772-1 1-1h9.5858l-3.29291-3.29289c-.39052-.39053-.39052-1.02369 0-1.41422z"/></g></svg>

<svg width="24" height="24" viewBox="0 0 24 24" fill="none" xmlns="http://www.w3.org/2000/svg">
<path d="M16.5307 2.03693C16.7663 1.99961 17.0284 1.99977 17.3329 1.99997L17.4825 1.99998C17.9595 1.99982 18.313 1.99971 18.6257 2.04924C20.3373 2.32033 21.6797 3.66269 21.9507 5.37426C22.0003 5.68701 22.0002 6.0405 22 6.51748L22 17.4825C22.0002 17.9595 22.0003 18.313 21.9507 18.6257C21.6797 20.3373 20.3373 21.6797 18.6257 21.9507C18.313 22.0003 17.9594 22.0002 17.4825 22L17.3329 22C17.0284 22.0002 16.7663 22.0004 16.5307 21.9631C15.247 21.7597 14.2402 20.753 14.0369 19.4693C13.9996 19.2336 13.9998 18.9716 14 18.6671V17.9054C14 17.6608 14 17.5385 14.0276 17.4234C14.0521 17.3214 14.0925 17.2239 14.1473 17.1344C14.2092 17.0335 14.2956 16.947 14.4686 16.774L17.1213 14.1213C18.2929 12.9497 18.2929 11.0503 17.1213 9.87868L14.4686 7.22596C14.2956 7.053 14.2092 6.96653 14.1473 6.86561C14.0925 6.77614 14.0521 6.67859 14.0276 6.57656C14 6.46147 14 6.33918 14 6.09458V5.33289C13.9998 5.02836 13.9996 4.76635 14.0369 4.53069C14.2402 3.24701 15.247 2.24024 16.5307 2.03693Z" fill="#801ED7"/>
<path d="M9.29289 6.29289C9.68342 5.90237 10.3166 5.90237 10.7071 6.29289L15.7071 11.2929C16.0976 11.6834 16.0976 12.3166 15.7071 12.7071L10.7071 17.7071C10.3166 18.0976 9.68342 18.0976 9.29289 17.7071C8.90237 17.3166 8.90237 16.6834 9.29289 16.2929L12.5858 13H3C2.44772 13 2 12.5523 2 12C2 11.4477 2.44772 11 3 11H12.5858L9.29289 7.70711C8.90237 7.31658 8.90237 6.68342 9.29289 6.29289Z" fill="#801ED7"/>
</svg>
